packages/kaspersky-hexa-ui-icons/src/iconsSVGs/28x20/FlagGh.svg

<svg width="28" height="20" viewBox="0 0 28 20" fill="none" xmlns="http://www.w3.org/2000/svg">
<g clip-path="url(#clip0_5138_871)">
<rect width="28" height="20" rx="2" fill="white"/>
<mask id="mask0_5138_871" style="mask-type:luminance" maskUnits="userSpaceOnUse" x="0" y="0" width="28" height="20">
<rect width="28" height="20" rx="2" fill="white"/>
</mask>
<g mask="url(#mask0_5138_871)">
<path fill-rule="evenodd" clip-rule="evenodd" d="M0 6.66667H28V0H0V6.66667Z" fill="#E71F37"/>
<path fill-rule="evenodd" clip-rule="evenodd" d="M0 20H28V13.3333H0V20Z" fill="#118B56"/>
<path fill-rule="evenodd" clip-rule="evenodd" d="M0 13.3333H28V6.66666H0V13.3333Z" fill="#FDD64C"/>
<path fill-rule="evenodd" clip-rule="evenodd" d="M14 11.6117L12.0407 13.0301L12.7842 10.7284L10.8298 9.30328L13.2486 9.29912L14 7L14.7514 9.29912L17.1702 9.30328L15.2158 10.7284L15.9593 13.0301L14 11.6117Z" fill="#262626"/>
</g>
</g>
<defs>
<clipPath id="clip0_5138_871">
<rect width="28" height="20" fill="white"/>
</clipPath>
</defs>
</svg>

<svg xmlns="http://www.w3.org/2000/svg" width="28" height="20" fill="none" viewBox="0 0 28 20"><g clip-path="url(#a)"><rect width="28" height="20" fill="#fff" rx="2"/><mask id="b" width="28" height="20" x="0" y="0" maskUnits="userSpaceOnUse" style="mask-type:luminance"><rect width="28" height="20" fill="#fff" rx="2"/></mask><g fill-rule="evenodd" clip-rule="evenodd" mask="url(#b)"><path fill="#e71f37" d="M0 6.6667h28V0H0z"/><path fill="#118b56" d="M0 20h28v-6.6667H0z"/><path fill="#fdd64c" d="M0 13.3333h28V6.6667H0z"/><path fill="#262626" d="m14 11.6117-1.9593 1.4184.7435-2.3017-1.9544-1.4251 2.4188-.0042L14 7l.7514 2.2991 2.4188.0042-1.9544 1.4251.7435 2.3017z"/></g></g><defs><clipPath id="a"><path fill="#fff" d="M0 0h28v20H0z"/></clipPath></defs></svg>
